X:1
T:RVW2/1/52 Golden Glove
T:RVW2/1/52 Golden Glove
T:Transcribed by Simon Furey and Lewis Jones
C:Transcribed by Simon Furey and Lewis Jones
L:1/8
Q:1/4=69
M:6/8
K:G
V:1 treble 
V:1
"^(Editorial suggestion)" D | GGG GB>A | GEE E2 F/G/ | AAA ABA | GEE E2 G/A/ | BBA BdB | %6
 AGA B2 B/A/ | GEE EDD | GGG/F/ G2 |] %9

